X:577
T: GRUENES GRAS UNTER MEINEN FUESSEN
N: E1885
O: Europa, Mitteleuropa, Deutschland
R: Kinder - Lied, Spiel
M: 2/4
L: 1/8
K: G
 | dBB2 | dBB2 |
edcB | A2Gz |
ddBe | ddBz |
edcA | A2Gz

@@@ Tune index: 5261
